X:1
T:Reinhold Glière. Op.9 No.1
T:Intermezzo
T:A Monsieur S. Koussewitzky
C:Reinhold Gliere
%%score 1 { ( 2 5 ) | ( 3 4 6 ) }
L:1/8
Q:1/4=120
M:3/4
K:G
V:1 bass transpose=-12 nm="Contrabasso"
V:2 treble nm="Piano"
V:5 treble 
V:3 bass 
V:4 bass 
V:6 bass 
V:1
"^Andantino grazioso." z6 | z6 | z6 | z6 |[K:treble] z!p!!<(! (DGABd)!<)! |!>(! (cBAE A2)!>)! | %6
 z!<(! (F B3) (c!<)! |!>(! B2 E4)!>)! | z (EFGFE | _E)(GEF D2- | D)(FD_E C2- | C)"_dim."(DB,C D2- | %12
 D)!<(!(DGABd)!<)! |!>(! (cBAE A2-)!>)! | A!<(!(F B3 c)!<)! |!>(! B2 E4-!>)! | E(EFGFE) | %17
 (_EGEF D2- | D)(FD_E C2- |!<(! C)(B,DGAB)!<)! |!f! e6 | _e6- | e2 (d2 B2) |"_dim." (A2 E2 F2) | %24
!>(! (F4 G2- | G2)!>)! z2 z2 | z2 z2!f!"^poco animato"!<(! (uC>c)!<)! | c6- | c2 (_B3 ^F | %29
!>(! A4 G2)!>)! | z2 z2!<(! (u_B,>_B)!<)! | _B6- | B2 (_A3 E |!>(! G4 =F2)!>)! | %34
 z!p!!<(! (_E_A_B_c_e)!<)! |!>(! (d_c_B=F B2)!>)! | (_c3 _B _A2- | A2) (_B3 =F) | (_B4 _E2) | %39
 (_E3 D) D2 | (D3 ^C) C2 | ^C4- C_B, | C_D G4- | G(_B,C_D G2- | G3) _B c_d |!<(! g6-!<)! | %46
!mf! g[K:bass]!<(!(D,G,A,B,D)!<)! |!f! (FED{/F}EB,C) |"_dim." (D_E_B,CD^D) | %49
 (_B,C!>(!D[K:treble]GA_B)!>)! |!p! d6- | d6- |"^.""_poco rit." d6- | d6- |!p! d(D!<(!GABd)!<)! | %55
 (cBAE A2- | A)!<(!F B3 c!<)! |!>(! (B2!>)! E4- | E)(EFGFE) | (_EGEF D2- | D)(FD_E C2- | %61
 C)(DB,C D2- | D)(DGABd) |!>(! (cBA!>)!E A2- |!<(! A)F!<)! B3 c |!>(! (B2!>)! E4- | %66
"_cresc. accelerando" E)EFGFE- | E(DGBd=f | e2) (c3 B |"^dim. rit." c)(EF^GAc) |!>(! (B4!>)! A2) | %71
"^a tempo"!p! G6- | G6- | G(G,CD_EG) | (c_BAc B2- | B)(_E_A_Bc_e | d4 F2) | (G4 F2 | =F6) | %79
 (_E3 D C2 | _E6-) | E6- | E6- | E6- | E[K:bass]"_molto rit."(_E,_A,_B,C_E) | _E6 | %86
 (D4[K:treble] d2) | d6 | A3!<(! (EGA!<)! |!>(! d6)!>)! |!<(! A3 (EG!<)!A |!>(! d6)!>)! | %92
!pp! !open!G6 | g6- | g6- | g6- |!>(! g6- | !fermata!g2!>)! z2 z2 |] %98
V:2
!p! z2!<(! z2 ([DGB]2!<)! |!>(! [CEA]6)!>)! | z2!<(! z2 ([DGB]2!<)! |!>(! [CEA]6)!>)! | %4
 z2!<(! z2 ([DGB]2!<)! |!>(! [CEA]6)!>)! | z2!<(! z2 ([^DFB]2!<)! |!>(! [B,E]6)!>)! | %8
 z2 z2 [EGce]2 | (([_EGc_e]4 [DFcd]2)) | [DFd]4 [CFc]2- |"_dim." [CFc]2 [B,GB]4 | %12
 z2 z2!<(! (([Bdgb]2!<)! |!>(! [Acea]6))!>)! | z2 z2!<(! ([B^dfb]2!<)! | [GBe]6) | z2 z2 [EGce]2 | %17
 (([_EGc_e]4 [DFcd]2)) | (([DFd]4 [CFc]2)) | (([Cc]2 [B,B]4-)) | [B,EB](B,E^FGB- | B)(gf{/a}gG-A | %22
 B3) (=f [^GBe][EG]) | (E4 F) z | [B,D]6- | [B,DG]4- [B,DG] z | %26
"_poco animato" z!f! ([eg]d_B[eg]B) | ([_eg](Ac[eg]-) A2) | [eg] [df]2 (F [_Bd][Ac]- | %29
 [Ac])(DGA[G_B]d) | z!f! ([d=f](c_AdA)) | [_d=f](G_B[df]- G2) | [df] [ce]2 (E [_Ac][G_B]- | %33
!>(! [GB])(C=FG[F_A]c)!>)! |!p! [_E_A_c]([c_e]AE [ce]2 | [=F_Bd]2) ([_bd']=fd[bd']) | %36
 [_e_a_c'_e'] (_E_A_B_ce) | (d_c_B=F B2- | B)(_B,_E=FG_B- | B)(_B,CD _A2) | z (_B,C_D G2- | %41
 G)(_B,C_D G2- | G3) (_B,C_D | G4- G)(_B | c_d g4- | g) z!<(! [_dg]4!<)! |!mf! [=B=dg]6- | [Bdg]6 | %48
!mf!"_dim." [_Bdg]6- |!>(! [Bdg]4-!>)! [Bdg] z |!p! ([FAd]6 | ([EG^c]6) | ([_EG=c]6) | %53
 [FB]4 [=CFA]2) |!p! [B,DG]4 z2 | z"_espr." (EABce) | (^dcBF B2- | B)(Befgb) | (ebe'eag- | %59
 g)(_egc c'2- | c')(dfc c'2- | c')(bgabd') | z!<(! ([gb]dB [gb]2)!<)! | z!<(! ([ea]cA!<)! [ea]2) | %64
 z ([^df]FB [df]2) | z [Be]GE [Be]2 |"_cresc. accelerando" z [gb] eB [gb]2 | z ([bd']gd [bd']2) | %68
 z ([^gd']ed [gd']2) | z ([ac']ec [ac']2) | z ([fb]dB [Afa]2) | [GBg] (DGABd | _ag^fa g2- | %73
 g)(bc'fg_e | gG_eG_d_E) | ((c6 | [Fc]6)) | [DGB](DGABd | _ag^fa g2- | g)(Gcd_eg | c'_bac' b2- | %81
 b)(_e_a_bc'_e') |!8va(! c''6- | c''6- |"_molto rit." c''2!8va)! z2 z2 | [F,CF]6- | %86
!>(! [F,CF]6!>)! | z2 z2!<(! ([DGB]2!<)! |!>(! [CEA]6)!>)! | z2 z2!<(! ([DGB]2!<)! | %90
!>(! [CEA]6)!>)! | [DGB]4 .[DG]2 | .[DGB]2 .[GBd]2 .[Bdg]2 | .[dgb]2 .[gbd']2 .[bd'g']2 | %94
!ppp! [g_b^c'g']6- | [gbc'g']6 |!>(! !arpeggio![g=bd'g']6- | !fermata![gbd'g']2!>)! z2 z2 |] %98
V:3
 [G,,,G,,]4 ([G,B,]2 | A,6) | [G,,,G,,]4 ([G,B,]2 | A,6) | [G,,,G,,]4 ([G,B,]2 | A,6) | %6
w: ||||||
 [G,,,G,,]4 ([^D,F,B,]2 | [E,G,]4) (G,,2 | [C,,C,]4) [E,G,C]2 | A,,(C,_E,A, [D,F,C]2) | %10
w: ||||
 _A,,(D,F,C D,2) | G,,(D,G,A,B,D) | [G,,,G,,]4 (((([D,G,B,D]2 | [E,A,CE]6)))) | %14
w: ||||
 [G,,,G,,]4 [^D,F,B,^D]2 |!>(! [E,G,B,E]4!>)! (G,,2 | [C,,C,]4) [E,G,C]2 | A,,(C,_E,A, [D,F,C]2) | %18
w: ||||
 _A,,(D,F,C D,2) | G,,6 | E,4 [E,G,B,E]2 | ^C,,6 | D,,2 D,4- | D,6 | z (G,,,G,,B,,D,E, | %25
w: |||||||
 G,A,E,F, G,) z | [C,,C,]4 ([_B,EG]2 | [A,_EG]6) | [D,,D,]2 (D2 [D,F,]2) | G,,2 (D,2 [G,_B,D]2) | %30
w: |||||
 [_B,,,_B,,]4 ([_A,D=F]2 | [G,_DF]6) | [C,,C,]2 (C2 [C,E,]2) | =F,,2 (C,2 [=F,_A,C]2) | %34
w: ||||
 [_A,,,_A,,]6- | [A,,,A,,]4 [_A,,,_A,,]2 | [_A,,,_A,,]6- | [A,,,A,,]4 [_A,,,_A,,]2 | %38
w: ||||
 [G,,,G,,]4 [_E,_B,_E]2 | (=F,,6 | E,,6) | _E,,6- | E,,6- | E,,6- | E,,6- | [E,,D,G,] z (G,2 A,2) | %46
w: ||||||||
 [=D,G,B,=D]6- | [D,G,B,D]6 | [D,G,_B,D]6- | [D,G,B,D]4- [D,G,B,D] z | z (D,F,A,^CD- | D)(^CDC D2 | %52
w: ||||||
 D)(D,G,A,CA, | D^CDC D2) | [G,,,G,,]4 ([D,G,B,D]2 | [E,A,C]6) | [G,,,G,,]4 ([^D,F,B,^D]2 | %57
w: |||||
 [E,G,B,E]4) (G,,2 | [C,,C,]4) [E,G,CE]2 | A,,(C,_E,A, [D,F,C]2) | _A,,(F,CF,- [F,D]2) | %61
w: ||||
 [G,,,G,,]6- | [G,,,G,,=F,B,D]4 [G,,,G,,]2 | [A,,,A,,]6 | ([F,A,^D]CB,F,B,)(B,, | %65
w: ||||
 C,)(G, [E,G,B,]4) | ^C,(B, [G,B,E]4) | [D,,D,]6 | [E,^G,D]4 E,,2 | [A,,,A,,]4 ([E,A,C]2 | %70
w: |||||
 [D,F,C]2) D,,2 [D,F,C]2 | [G,,,G,,]6- | [G,,,G,,]6 | [C,,C,]4 ([_E,G,C]2 | %74
w: ||||
 [_E,G,_D]4) [_E,,,_E,,]2 | [_A,,,_A,,]2 (_A,2 G,2) | [D,F,C]4 [D,,,D,,]2 | [G,,,G,,]6- | %78
w: ||||
 [G,,,G,,]4 (([G,,,G,,]2 | [C,,C,]4)) ([_E,G,C]2 | [_E,G,_D]4) ([_E,,,_E,,]2 | %81
w: |||
 [_A,,,_A,,]4) [_E,_A,C]2 |[K:treble] [_A,C_E]2 (.[CE_A]2 .[EAc]2 | .[_Ac_e]2 .[ce_a]2 .[eac']2 | %84
w: |||
 [_ac'_e']2) z2[K:bass] (_A,,2 | !arpeggio![D,,,=A,,]6-) | [D,,,A,,]6 |!p! [G,,,G,,]4 ([D,G,B,]2 | %88
w: |D|||
 [E,A,]6) |!p! [G,,,G,,]4 ([D,G,B,]2 | [E,A,]6) | [G,,,G,,]4 (.[G,B,]2 | %92
w: ||||
 .[G,B,]2 .[G,B,D]2 .[G,DG]2 |[K:treble] .[GB]2 .[Gd]2 .[Gdg]2) | [_E_B^c]6- | [EBc]6 | %96
w: ||||
 !arpeggio![G,D=B]6- | !fermata![G,DB]2 z2 z2 |] %98
w: ||
V:4
 x4 D,2 | E,6 | x4 D,2 | E,6 | x4 D,2 | E,6 | x6 | x6 | x6 | x6 | x6 | x6 | x6 | x6 | x6 | x6 | %16
 x6 | x6 | x6 | z (D,A,G,^F,=F,) | C,,6 | z2 z2 [_E,G,B,_E]2 | z (G,B,DEB,) | (CB,^G,A,DC) | x6 | %25
 x6 | x6 | x6 | x6 | x6 | x6 | x6 | x6 | x6 | z2 z2 ([_E,_A,_C_E]2 | [=F,_B,D]6) | %36
 z2 z2 ([_E,_A,_C_E]2 | [=F,_B,D]6) | x6 | z2 z2 [_B,,D,_A,]2 | z2 z2 [_B,,_D,G,]2 | %41
 z2 z2 [_D,G,]2- | [D,G,]6- | [D,G,]6- | [D,G,]6- | x2 [_E,G,_D]4 | x6 | x6 | x6 | x6 | x6 | x6 | %52
 x6 | x6 | x6 | x6 | x6 | x6 | x6 | x6 | x6 | x2 G,2 F,2 | x6 | z (E,A,B,CE) | x6 | x6 | x6 | %67
 z (B, [G,B,D]4) | x6 | x6 | x6 | z2 z2 ([D,G,B,]2 | [=F,B,=F]6) | x6 | x6 | x2 [_E,C]4 | x6 | %77
 z2 z2 [G,B,D]2 | [=F,B,=F]4 x2 | x6 | x6 | x6 |[K:treble] x6 | x6 | x4[K:bass] x2 | x6 | x6 | x6 | %88
 x6 | x6 | x6 | x6 | x6 |[K:treble] x6 | x6 | _E,6 | x6 | x6 |] %98
V:5
 x6 | x6 | x6 | x6 | x6 | x6 | x6 | x6 | x6 | x6 | x6 | x6 | x6 | x6 | x6 | x6 | x6 | x6 | x6 | %19
 =F4 x2 | x6 | x4 G2 | G2 x4 | ABdcB>F | A4 G2- | x6 | x [eg]3 [eg]2 | [_eg]3 x [eg]2- | x6 | x6 | %30
 x [d=f]3 [df]2 | [_d=f]3 x [df]2- | x6 | x6 | x6 | x6 | x6 | x6 | x6 | x6 | x6 | x6 | x6 | x6 | %44
 x6 | x2 (G2 A2) | x6 | x6 | x6 | x6 | x6 | x6 | x6 | x6 | x6 | x6 | x6 | x6 | x6 | x6 | x6 | x6 | %62
 x6 | x6 | x6 | x6 | x6 | x6 | x6 | x6 | x6 | x6 | x6 | x6 | x6 | _A4 G2 | x6 | x6 | x6 | x6 | x6 | %81
 x6 |!8va(! x6 | x6 | x2!8va)! x4 | x6 | x6 | x6 | x6 | x6 | x6 | x6 | x6 | x6 | x6 | x6 | x6 | %97
 x6 |] %98
V:6
 x6 | x6 | x6 | x6 | x6 | x6 | x6 | x6 | x6 | x6 | x6 | x6 | x6 | x6 | x6 | x6 | x6 | x6 | x6 | %19
 x6 | x6 | x6 | x6 | x6 | x6 | x6 | x6 | x6 | x6 | x6 | x6 | x6 | x6 | x6 | x6 | x6 | x6 | x6 | %38
 x6 | x6 | x6 | x6 | x6 | x6 | x6 | x6 | x6 | x6 | x6 | x6 | x6 | x6 | x6 | x6 | x6 | x6 | x6 | %57
 x6 | x6 | x6 | x6 | z2 [B,D]4- | x6 | x6 | x6 | x6 | x6 | x6 | x6 | x6 | x6 | x6 | x6 | x6 | x6 | %75
 x6 | x6 | x6 | x6 | x6 | x6 | x6 |[K:treble] x6 | x6 | x4[K:bass] x2 | x6 | x6 | x6 | x6 | x6 | %90
 x6 | x6 | x6 |[K:treble] x6 | x6 | x6 | x6 | x6 |] %98

